Origami/64x64/apps/maxima.svg

<svg width="64" height="64" version="1.1" viewBox="0 0 64 64" xmlns="http://www.w3.org/2000/svg">
 <g transform="translate(0,-988.3622)">
  <circle cx="32" cy="1021.362" r="28" style="opacity:.2"/>
  <circle cx="32" cy="1020.362" r="28" style="fill:#404b8b"/>
  <path d="m16.642857 1007.3622c-0.989286 0-1.642857 0.6244-1.642857 1.3999 0 0.7757 0.653571 1.6004 1.642857 1.6004h1.160714s1.384718 0.3652 1.331744 1.5204c-0.358883 4.9134-2.2668 18.2267-2.860761 19.3143-0.748939 1.0274-1.235374 1.1648-2.48884 1.1648-0.989285 0-1.785714 0.8246-1.785714 1.6002s0.796429 1.4 1.785714 1.4h9.421429c0.989285 0 1.792857-0.6244 1.792857-1.4s-0.803572-1.6002-1.792857-1.6002c-2.150889 0.2717-2.716872-0.2751-3.297383-1.8496-0.295924-1.5337-0.193549-3.7512 0.173387-7.7392 0.660424-7.1778 1.025207-8.4519 1.992188-7.8661 0.666695 0.4037 5.505876 10.2867 7.095423 15.0614 0.655184 1.9681 1.442125 3.4969 1.749443 3.3961 0.307317-0.1003 1.264-2.0651 2.126116-4.3668 1.948982-5.2037 5.80524-12.7849 6.442523-13.4838 0.845977-0.9279 1.353286 0.5095 2.622767 8.2627 1.201149 7.3357 1.207396 7.3658 0.242746 8.4103-0.348846 0.3347-1.08372 0.175-1.561496 0.175-0.989285 0-1.792857 0.8246-1.792857 1.6002s0.803572 1.4 1.792857 1.4h9.421429c0.989285 0 1.785714-0.6244 1.785714-1.4s-0.796429-1.6002-1.785714-1.6002c-1.579921 0.1794-1.50524-0.3-1.994865-1.4786-1.505643-4.478-3.776693-16.9908-3.23672-19.0991 0.593185-1.2663 0.998125-1.4218 2.374442-1.4218 0.989286 0 1.642857-0.8247 1.642857-1.6004 0-0.7755-0.653571-1.3999-1.642857-1.3999h-9.285714c-0.989286 0-2.071429 0.1342-2.071429 1.3999 0 1.511 1.444101 1.2505 2.071429 2.0001 0.930942 0.8906 0.261813 1.2421-0.119558 2.1547-1.711106 3.1783-2.983702 6.9755-4.66632 9.9938-0.504333 0.8948-1.056839 1.5863-1.517129 1.5659-0.717278-0.073-3.103826-6.3028-4.659598-9.3289-0.587116-1.3811-0.973328-1.8087-1.329685-2.6571-0.989258-1.636-0.03194-2.0376 1.223918-2.3029 0.579936-0.2295 1.012098-0.6916 0.996943-1.4256-0.02676-1.296-0.981714-1.3999-1.971-1.3999z" style="opacity:.2"/>
  <path d="m16.642857 1006.3622c-0.989286 0-1.642857 0.6244-1.642857 1.3999 0 0.7757 0.653571 1.6004 1.642857 1.6004h1.160714s1.384718 0.3652 1.331744 1.5204c-0.358883 4.9134-2.2668 18.2267-2.860761 19.3143-0.748939 1.0274-1.235374 1.1648-2.48884 1.1648-0.989285 0-1.785714 0.8246-1.785714 1.6002s0.796429 1.4 1.785714 1.4h9.421429c0.989285 0 1.792857-0.6244 1.792857-1.4s-0.803572-1.6002-1.792857-1.6002c-2.150889 0.2717-2.716872-0.2751-3.297383-1.8496-0.295924-1.5337-0.193549-3.7512 0.173387-7.7392 0.660424-7.1778 1.025207-8.4519 1.992188-7.8661 0.666695 0.4037 5.505876 10.2867 7.095423 15.0614 0.655184 1.9681 1.442125 3.4969 1.749443 3.3961 0.307317-0.1003 1.264-2.0651 2.126116-4.3668 1.948982-5.2037 5.80524-12.7849 6.442523-13.4838 0.845977-0.9279 1.353286 0.5095 2.622767 8.2627 1.201149 7.3357 1.207396 7.3658 0.242746 8.4103-0.348846 0.3347-1.08372 0.175-1.561496 0.175-0.989285 0-1.792857 0.8246-1.792857 1.6002s0.803572 1.4 1.792857 1.4h9.421429c0.989285 0 1.785714-0.6244 1.785714-1.4s-0.796429-1.6002-1.785714-1.6002c-1.579921 0.1794-1.50524-0.3-1.994865-1.4786-1.505643-4.478-3.776693-16.9908-3.23672-19.0991 0.593185-1.2663 0.998125-1.4218 2.374442-1.4218 0.989286 0 1.642857-0.8247 1.642857-1.6004 0-0.7755-0.653571-1.3999-1.642857-1.3999h-9.285714c-0.989286 0-2.071429 0.1342-2.071429 1.3999 0 1.511 1.444101 1.2505 2.071429 2.0001 0.930942 0.8906 0.261813 1.2421-0.119558 2.1547-1.711106 3.1783-2.983702 6.9755-4.66632 9.9938-0.504333 0.8948-1.056839 1.5863-1.517129 1.5659-0.717278-0.073-3.103826-6.3028-4.659598-9.3289-0.587116-1.3811-0.973328-1.8087-1.329685-2.6571-0.989258-1.636-0.03194-2.0376 1.223918-2.3029 0.579936-0.2295 1.012098-0.6916 0.996943-1.4256-0.02676-1.296-0.981714-1.3999-1.971-1.3999z" style="fill:#f26265"/>
  <path transform="translate(0,988.3622)" d="M 32 4 A 28 28 0 0 0 4 32 A 28 28 0 0 0 4.0214844 32.585938 A 28 28 0 0 1 32 5 A 28 28 0 0 1 59.978516 32.414062 A 28 28 0 0 0 60 32 A 28 28 0 0 0 32 4 z" style="fill:#ffffff;opacity:.1"/>
  <path transform="translate(0,988.3622)" d="m16.642578 18c-0.989286 0-1.642578 0.624891-1.642578 1.400391 0 0.17204 0.036826 0.344389 0.097656 0.511718 0.213718-0.532755 0.775477-0.912109 1.544922-0.912109h9.386719c0.845186 0 1.658809 0.081858 1.896484 0.912109 0.050202-0.153497 0.078117-0.322905 0.074219-0.511718-0.02676-1.296-0.981417-1.400391-1.970703-1.400391h-9.386719zm21.429688 0c-0.989286 0-2.072266 0.134691-2.072266 1.400391 0 0.202219 0.027908 0.368243 0.074219 0.513671 0.251795-0.80992 1.15582-0.914062 1.998047-0.914062h9.285156c0.769445 0 1.331204 0.379354 1.544922 0.912109 0.06083-0.167329 0.097656-0.339678 0.097656-0.511718 0-0.7755-0.653292-1.400391-1.642578-1.400391h-9.285156zm-12.576172 4.566406c-0.200738 0.336719-0.16698 0.818004 0.283203 1.5625 0.356357 0.8484 0.742962 1.27515 1.330078 2.65625 1.555772 3.0261 3.940925 9.257078 4.658203 9.330078 0.46029 0.0204 1.013245-0.671606 1.517578-1.566406 1.682618-3.0183 2.95491-6.81584 4.666016-9.99414 0.327961-0.784794 0.863018-1.155968 0.416016-1.810547-0.123766 0.234124-0.278941 0.482534-0.416016 0.810547-1.711106 3.1783-2.983398 6.97584-4.666016 9.99414-0.504333 0.8948-1.057288 1.586806-1.517578 1.566406-0.717278-0.073-3.102431-6.303978-4.658203-9.330078-0.587116-1.3811-0.973721-1.80785-1.330078-2.65625-0.124651-0.206143-0.217067-0.393357-0.283203-0.5625zm-6.414063 0.529297c-0.442171 5.262753-2.2321 17.688195-2.80664 18.740235-0.748939 1.027399-1.236769 1.164062-2.490235 1.164062-0.989285 0-1.785156 0.824009-1.785156 1.599609 0 0.172302 0.045195 0.336092 0.117188 0.488282 0.251786-0.587101 0.898048-1.087891 1.667968-1.087891 1.253466 0 1.741296-0.136663 2.490235-1.164062 0.593961-1.087601 2.500492-14.401054 2.859375-19.314454 0.007171-0.15638-0.014215-0.297301-0.052735-0.425781zm25.837891 0.791016c-0.220182 3.043922 1.878358 14.410082 3.298828 18.634765 0.489625 1.1786 0.416173 1.657916 1.996094 1.478516 0.76992 0 1.416182 0.50079 1.667968 1.087891 0.071993-0.15219 0.117188-0.31598 0.117188-0.488282 0-0.7756-0.795871-1.599609-1.785156-1.599609-1.579921 0.1794-1.506469-0.299916-1.996094-1.478516-1.296509-3.856004-3.150779-13.636746-3.298828-17.634765zm-25.166016 15.195312c-0.04023 1.297555 0.004118 2.279897 0.15625 3.06836 0.580511 1.5745 1.145986 2.121309 3.296875 1.849609 0.76992 0 1.422077 0.50079 1.675781 1.087891 0.072542-0.15219 0.117188-0.31598 0.117188-0.488282 0-0.7756-0.803684-1.599609-1.792969-1.599609-2.150889 0.2717-2.716364-0.275109-3.296875-1.849609-0.108569-0.56269-0.148301-1.267921-0.15625-2.06836zm23.263672 2.556641c-0.076866 0.545137-0.302319 0.793859-0.664062 1.185547-0.348846 0.3347-1.082771 0.175781-1.560547 0.175781-0.989285 0-1.792969 0.824009-1.792969 1.599609 0 0.172302 0.044646 0.336092 0.117188 0.488282 0.253704-0.587101 0.905861-1.087891 1.675781-1.087891 0.477776 0 1.211701 0.158919 1.560547-0.175781 0.52524-0.568718 0.750659-0.875264 0.664062-2.185547z" style="fill:#ffffff;opacity:.2"/>
 </g>
</svg>

<svg xmlns="http://www.w3.org/2000/svg" width="64" height="64" version="1.1" viewBox="0 0 64 64">
 <g transform="translate(0,-988.3622)">
  <circle style="opacity:0.2" cx="32" cy="1021.362" r="28"/>
  <circle style="fill:#404b8b" cx="32" cy="1020.362" r="28"/>
  <path style="opacity:0.2" d="m 16.642857,1007.3622 c -0.989286,0 -1.642857,0.6244 -1.642857,1.3999 0,0.7757 0.653571,1.6004 1.642857,1.6004 l 1.160714,0 c 0,0 1.384718,0.3652 1.331744,1.5204 -0.358883,4.9134 -2.2668,18.2267 -2.860761,19.3143 -0.748939,1.0274 -1.235374,1.1648 -2.48884,1.1648 -0.989285,0 -1.785714,0.8246 -1.785714,1.6002 0,0.7756 0.796429,1.4 1.785714,1.4 l 9.421429,0 c 0.989285,0 1.792857,-0.6244 1.792857,-1.4 0,-0.7756 -0.803572,-1.6002 -1.792857,-1.6002 -2.150889,0.2717 -2.716872,-0.2751 -3.297383,-1.8496 -0.295924,-1.5337 -0.193549,-3.7512 0.173387,-7.7392 0.660424,-7.1778 1.025207,-8.4519 1.992188,-7.8661 0.666695,0.4037 5.505876,10.2867 7.095423,15.0614 0.655184,1.9681 1.442125,3.4969 1.749443,3.3961 0.307317,-0.1003 1.264,-2.0651 2.126116,-4.3668 1.948982,-5.2037 5.80524,-12.7849 6.442523,-13.4838 0.845977,-0.9279 1.353286,0.5095 2.622767,8.2627 1.201149,7.3357 1.207396,7.3658 0.242746,8.4103 -0.348846,0.3347 -1.08372,0.175 -1.561496,0.175 -0.989285,0 -1.792857,0.8246 -1.792857,1.6002 0,0.7756 0.803572,1.4 1.792857,1.4 l 9.421429,0 c 0.989285,0 1.785714,-0.6244 1.785714,-1.4 0,-0.7756 -0.796429,-1.6002 -1.785714,-1.6002 -1.579921,0.1794 -1.50524,-0.3 -1.994865,-1.4786 -1.505643,-4.478 -3.776693,-16.9908 -3.23672,-19.0991 0.593185,-1.2663 0.998125,-1.4218 2.374442,-1.4218 0.989286,0 1.642857,-0.8247 1.642857,-1.6004 0,-0.7755 -0.653571,-1.3999 -1.642857,-1.3999 l -9.285714,0 c -0.989286,0 -2.071429,0.1342 -2.071429,1.3999 0,1.511 1.444101,1.2505 2.071429,2.0001 0.930942,0.8906 0.261813,1.2421 -0.119558,2.1547 -1.711106,3.1783 -2.983702,6.9755 -4.66632,9.9938 -0.504333,0.8948 -1.056839,1.5863 -1.517129,1.5659 -0.717278,-0.073 -3.103826,-6.3028 -4.659598,-9.3289 -0.587116,-1.3811 -0.973328,-1.8087 -1.329685,-2.6571 -0.989258,-1.636 -0.03194,-2.0376 1.223918,-2.3029 0.579936,-0.2295 1.012098,-0.6916 0.996943,-1.4256 -0.02676,-1.296 -0.981714,-1.3999 -1.971,-1.3999 z"/>
  <path style="fill:#f26265" d="m 16.642857,1006.3622 c -0.989286,0 -1.642857,0.6244 -1.642857,1.3999 0,0.7757 0.653571,1.6004 1.642857,1.6004 l 1.160714,0 c 0,0 1.384718,0.3652 1.331744,1.5204 -0.358883,4.9134 -2.2668,18.2267 -2.860761,19.3143 -0.748939,1.0274 -1.235374,1.1648 -2.48884,1.1648 -0.989285,0 -1.785714,0.8246 -1.785714,1.6002 0,0.7756 0.796429,1.4 1.785714,1.4 l 9.421429,0 c 0.989285,0 1.792857,-0.6244 1.792857,-1.4 0,-0.7756 -0.803572,-1.6002 -1.792857,-1.6002 -2.150889,0.2717 -2.716872,-0.2751 -3.297383,-1.8496 -0.295924,-1.5337 -0.193549,-3.7512 0.173387,-7.7392 0.660424,-7.1778 1.025207,-8.4519 1.992188,-7.8661 0.666695,0.4037 5.505876,10.2867 7.095423,15.0614 0.655184,1.9681 1.442125,3.4969 1.749443,3.3961 0.307317,-0.1003 1.264,-2.0651 2.126116,-4.3668 1.948982,-5.2037 5.80524,-12.7849 6.442523,-13.4838 0.845977,-0.9279 1.353286,0.5095 2.622767,8.2627 1.201149,7.3357 1.207396,7.3658 0.242746,8.4103 -0.348846,0.3347 -1.08372,0.175 -1.561496,0.175 -0.989285,0 -1.792857,0.8246 -1.792857,1.6002 0,0.7756 0.803572,1.4 1.792857,1.4 l 9.421429,0 c 0.989285,0 1.785714,-0.6244 1.785714,-1.4 0,-0.7756 -0.796429,-1.6002 -1.785714,-1.6002 -1.579921,0.1794 -1.50524,-0.3 -1.994865,-1.4786 -1.505643,-4.478 -3.776693,-16.9908 -3.23672,-19.0991 0.593185,-1.2663 0.998125,-1.4218 2.374442,-1.4218 0.989286,0 1.642857,-0.8247 1.642857,-1.6004 0,-0.7755 -0.653571,-1.3999 -1.642857,-1.3999 l -9.285714,0 c -0.989286,0 -2.071429,0.1342 -2.071429,1.3999 0,1.511 1.444101,1.2505 2.071429,2.0001 0.930942,0.8906 0.261813,1.2421 -0.119558,2.1547 -1.711106,3.1783 -2.983702,6.9755 -4.66632,9.9938 -0.504333,0.8948 -1.056839,1.5863 -1.517129,1.5659 -0.717278,-0.073 -3.103826,-6.3028 -4.659598,-9.3289 -0.587116,-1.3811 -0.973328,-1.8087 -1.329685,-2.6571 -0.989258,-1.636 -0.03194,-2.0376 1.223918,-2.3029 0.579936,-0.2295 1.012098,-0.6916 0.996943,-1.4256 -0.02676,-1.296 -0.981714,-1.3999 -1.971,-1.3999 z"/>
  <path style="opacity:0.1;fill:#ffffff" d="M 32 4 A 28 28 0 0 0 4 32 A 28 28 0 0 0 4.0214844 32.585938 A 28 28 0 0 1 32 5 A 28 28 0 0 1 59.978516 32.414062 A 28 28 0 0 0 60 32 A 28 28 0 0 0 32 4 z" transform="translate(0,988.3622)"/>
  <path style="fill:#ffffff;opacity:0.2" d="M 16.642578 18 C 15.653292 18 15 18.624891 15 19.400391 C 15 19.572431 15.036826 19.74478 15.097656 19.912109 C 15.311374 19.379354 15.873133 19 16.642578 19 L 26.029297 19 C 26.874483 19 27.688106 19.081858 27.925781 19.912109 C 27.975983 19.758612 28.003898 19.589204 28 19.400391 C 27.97324 18.104391 27.018583 18 26.029297 18 L 16.642578 18 z M 38.072266 18 C 37.08298 18 36 18.134691 36 19.400391 C 36 19.60261 36.027908 19.768634 36.074219 19.914062 C 36.326014 19.104142 37.230039 19 38.072266 19 L 47.357422 19 C 48.126867 19 48.688626 19.379354 48.902344 19.912109 C 48.963174 19.74478 49 19.572431 49 19.400391 C 49 18.624891 48.346708 18 47.357422 18 L 38.072266 18 z M 25.496094 22.566406 C 25.295356 22.903125 25.329114 23.38441 25.779297 24.128906 C 26.135654 24.977306 26.522259 25.404056 27.109375 26.785156 C 28.665147 29.811256 31.0503 36.042234 31.767578 36.115234 C 32.227868 36.135634 32.780823 35.443628 33.285156 34.548828 C 34.967774 31.530528 36.240066 27.732988 37.951172 24.554688 C 38.279133 23.769894 38.81419 23.39872 38.367188 22.744141 C 38.243422 22.978265 38.088247 23.226675 37.951172 23.554688 C 36.240066 26.732988 34.967774 30.530528 33.285156 33.548828 C 32.780823 34.443628 32.227868 35.135634 31.767578 35.115234 C 31.0503 35.042234 28.665147 28.811256 27.109375 25.785156 C 26.522259 24.404056 26.135654 23.977306 25.779297 23.128906 C 25.654646 22.922763 25.56223 22.735549 25.496094 22.566406 z M 19.082031 23.095703 C 18.63986 28.358456 16.849931 40.783898 16.275391 41.835938 C 15.526452 42.863337 15.038622 43 13.785156 43 C 12.795871 43 12 43.824009 12 44.599609 C 12 44.771911 12.045195 44.935701 12.117188 45.087891 C 12.368974 44.50079 13.015236 44 13.785156 44 C 15.038622 44 15.526452 43.863337 16.275391 42.835938 C 16.869352 41.748337 18.775883 28.434884 19.134766 23.521484 C 19.141937 23.365104 19.120551 23.224183 19.082031 23.095703 z M 44.919922 23.886719 C 44.69974 26.930641 46.79828 38.296801 48.21875 42.521484 C 48.708375 43.700084 48.634923 44.1794 50.214844 44 C 50.984764 44 51.631026 44.50079 51.882812 45.087891 C 51.954805 44.935701 52 44.771911 52 44.599609 C 52 43.824009 51.204129 43 50.214844 43 C 48.634923 43.1794 48.708375 42.700084 48.21875 41.521484 C 46.922241 37.66548 45.067971 27.884738 44.919922 23.886719 z M 19.753906 39.082031 C 19.713676 40.379586 19.758024 41.361928 19.910156 42.150391 C 20.490667 43.724891 21.056142 44.2717 23.207031 44 C 23.976951 44 24.629108 44.50079 24.882812 45.087891 C 24.955354 44.935701 25 44.771911 25 44.599609 C 25 43.824009 24.196316 43 23.207031 43 C 21.056142 43.2717 20.490667 42.724891 19.910156 41.150391 C 19.801587 40.587701 19.761855 39.88247 19.753906 39.082031 z M 43.017578 41.638672 C 42.940712 42.183809 42.715259 42.432531 42.353516 42.824219 C 42.00467 43.158919 41.270745 43 40.792969 43 C 39.803684 43 39 43.824009 39 44.599609 C 39 44.771911 39.044646 44.935701 39.117188 45.087891 C 39.370892 44.50079 40.023049 44 40.792969 44 C 41.270745 44 42.00467 44.158919 42.353516 43.824219 C 42.878756 43.255501 43.104175 42.948955 43.017578 41.638672 z" transform="translate(0,988.3622)"/>
 </g>
</svg>
